!!!COM: Anonim
!!!CDT: [?]
!!!OTL: Iedÿnÿ Synu Oyca niebieskiego
!!!TXO: Polish
!!!ODT: 
!!!GTL: Hymnbook E
!!!ARL: Opactwo św. Wojciecha, Staniątki 
!!!voices:	3
**kern	**kern	**text	**text	**kern	**text	**text
*staff3	*staff2	*staff2	*staff2	*staff1	*staff1	*staff1
*I"Basso	*I"Canto II	*	*	*I"Canto I	*	*
=1-	=1-	=1-	=1-	=1-	=1-	=1-
*clefF4	*clefG2	*	*	*clefG2	*	*
*k[]	*k[]	*	*	*k[]	*	*
*met(c|)	*met(c|)	*	*	*met(c|)	*	*
*M2/2	*M2/2	*	*	*M2/2	*	*
1F	1f	Je-	Je-	1f	Je-	Je-
=2	=2	=2	=2	=2	=2	=2
2F	2f	-dy-	-dy-	2f	-dy-	-dy-
2F	2f	-ny	-ne	2f	-ny	-ne
=3	=3	=3	=3	=3	=3	=3
1C	1g	sy-	sło-	1cc	sy-	sło-
=4	=4	=4	=4	=4	=4	=4
2F	2a	-nu	-wo	2cc	-nu	-wo
[2F	[2a	oj-	Bo-	[2cc	oj-	Bo-
=5	=5	=5	=5	=5	=5	=5
2F]	2a]	.	.	2cc]	.	.
2D	2f	-ca	-ga	2a	-ca	-ga
=6	=6	=6	=6	=6	=6	=6
2BB-	2g	nie-	wszech-	2b-i	nie-	wszech-
2D	2f	-bies-	-moc-	2a	-bies-	-moc-
=7	=7	=7	=7	=7	=7	=7
1C	2f	-kie-	-ne-	1g	-kie-	-ne-
.	2e	.	.	.	.	.
=8	=8	=8	=8	=8	=8	=8
[1FF	[1f	-go	-go	[1a	-go	-go
=9	=9	=9	=9	=9	=9	=9
1FF]	1f]	.	.	1a]	.	.
=10:|!	=10:|!	=10:|!	=10:|!	=10:|!	=10:|!	=10:|!
1C	1g	O	.	1ee	O	.
=11	=11	=11	=11	=11	=11	=11
2C	2g	Chrys-	.	2ee	Chrys-	.
2C	2g	-te	.	2ee	-te	.
=12	=12	=12	=12	=12	=12	=12
1F	1a	Je-	.	1ff	Je-	.
=13	=13	=13	=13	=13	=13	=13
1C	1g	-zu	.	1ee	-zu	.
=14	=14	=14	=14	=14	=14	=14
2E	2cc	je-	.	2cc	je-	.
2E	2cc	-dy-	.	2cc	-dy-	.
=15	=15	=15	=15	=15	=15	=15
2F	2ff	-ne	.	2dd	-ne	.
2A	2ee	ko-	.	2cc	ko-	.
=16	=16	=16	=16	=16	=16	=16
1G	1dd	-cha-	.	1b	-cha-	.
=17	=17	=17	=17	=17	=17	=17
[1C	[1cc	-nie	.	[1cc	-nie	.
=18	=18	=18	=18	=18	=18	=18
1C]	1cc]	.	.	1cc]	.	.
=19	=19	=19	=19	=19	=19	=19
1E	1g	wi-	.	1cc	wi-	.
=20	=20	=20	=20	=20	=20	=20
2F	2a	-taj	.	2dd	-taj	.
2C	2cc	nasz	.	2cc	nasz	.
=21	=21	=21	=21	=21	=21	=21
1G	1dd	Pa-	.	1b	Pa-	.
=22	=22	=22	=22	=22	=22	=22
1C	1cc	-nie.	.	1cc	-nie.	.
==	==	==	==	==	==	==
*-	*-	*-	*-	*-	*-	*-
!!title: @{OTL}, @{GTL}: @{pag}, ed. @{ENC}
!!!pag: pp. 64v-65r 
!!!GTL: Hymnbook E
!!!EFL: 
!!!YEM: Creative Commons CC/BY/NC/SA 4.0
!!!ENC: Marcin Konik
!!!END: 2015-05-02
!!!EED: Marcin Konik
!!!EEV: 
!!!ONB: Encoded in vim by Marcin Konik
!!!CharacterEncoding: utf-8
!!!RDF**kern: l=long note in original notation
!!!RDF**kern: i=editorial accidental
!!muse2ps: z14jc180F
